X: 30332
M: 3/4
L: 1/8
K: C
cBcdef | ag(eGeG) | gf(cGdG) | fe(cGcG) |\
cBcdef | ag(eGeG) | gfdGdG | c4 :|
|: G2 |\
cBcdef | (egc'gec) | BdgfdB | cdecG2 |\
cBcdef | (egc'gec) | BdgfdB | c4 :|


